src/pos-icons/message-arrow-left-outline.svg

<svg height="24" viewBox="0 0 24 24" width="24" xmlns="http://www.w3.org/2000/svg"><path d="m20 2h-16c-1.1 0-2 .9-2 2v18l4-4h14c1.1 0 2-.9 2-2v-12c0-1.1-.9-2-2-2m0 14h-14l-2 2v-14h16m-4 7v-2h-4.5l1.8-1.8-1.3-1.2-4 4 4 4 1.2-1.2-1.7-1.8z"/></svg>

<?xml version="1.0" encoding="UTF-8"?><!DOCTYPE svg PUBLIC "-//W3C//DTD SVG 1.1//EN" "http://www.w3.org/Graphics/SVG/1.1/DTD/svg11.dtd"><svg xmlns="http://www.w3.org/2000/svg" xmlns:xlink="http://www.w3.org/1999/xlink" version="1.1" id="mdi-message-arrow-left-outline" width="24" height="24" viewBox="0 0 24 24"><path d="M20 2H4C2.9 2 2 2.9 2 4V22L6 18H20C21.1 18 22 17.1 22 16V4C22 2.9 21.1 2 20 2M20 16H6L4 18V4H20M16 11V9H11.5L13.3 7.2L12 6L8 10L12 14L13.2 12.8L11.5 11H16Z" /></svg>
